resources/icons/16px/anchor.svg

<svg width="16" height="16" viewBox="0 0 16 16" fill="none" xmlns="http://www.w3.org/2000/svg">
<path fill-rule="evenodd" clip-rule="evenodd" d="M10 2C10 2.74028 9.5978 3.38663 9 3.73244V5H11V7H9V13.874C10.5882 13.4652 11.7947 12.1055 11.9763 10.4379L11.7071 10.7071C11.3166 11.0976 10.6834 11.0976 10.2929 10.7071C9.90237 10.3166 9.90237 9.68342 10.2929 9.29289L12.2929 7.29289C12.6834 6.90237 13.3166 6.90237 13.7071 7.29289L15.7071 9.29289C16.0976 9.68342 16.0976 10.3166 15.7071 10.7071C15.3166 11.0976 14.6834 11.0976 14.2929 10.7071L13.9868 10.401C13.7805 13.5278 11.179 16 8 16C4.82105 16 2.21952 13.5278 2.01319 10.401L1.70711 10.7071C1.31658 11.0976 0.683417 11.0976 0.292893 10.7071C-0.0976311 10.3166 -0.0976311 9.68342 0.292893 9.29289L2.29289 7.29289C2.68342 6.90237 3.31658 6.90237 3.70711 7.29289L5.70711 9.29289C6.09763 9.68342 6.09763 10.3166 5.70711 10.7071C5.31658 11.0976 4.68342 11.0976 4.29289 10.7071L4.0237 10.4379C4.20527 12.1055 5.41175 13.4652 7 13.874V7H5V5H7V3.73244C6.4022 3.38663 6 2.74028 6 2C6 0.895431 6.89543 0 8 0C9.10457 0 10 0.895431 10 2Z" fill="black"/>
</svg>

<svg xmlns="http://www.w3.org/2000/svg" viewBox="0 0 16 16">
  <path d="M10 2a2 2 0 0 1-1 1.732V5h2v2H9v6.874a4 4 0 0 0 2.976-3.436l-.269.27a1 1 0 0 1-1.414-1.415l2-2a1 1 0 0 1 1.414 0l2 2a1 1 0 0 1-1.414 1.414l-.306-.306a6 6 0 0 1-11.974 0l-.306.306A1 1 0 0 1 .293 9.293l2-2a1 1 0 0 1 1.414 0l2 2a1 1 0 0 1-1.414 1.414l-.27-.27A4 4 0 0 0 7 13.875V7H5V5h2V3.732A2 2 0 1 1 10 2"/>
</svg>
